client/src/assets/public/images/icons/whatsapp.svg

<?xml version="1.0" encoding="UTF-8"?>
<svg width="16px" height="16px" viewBox="0 0 16 16" version="1.1" xmlns="http://www.w3.org/2000/svg" xmlns:xlink="http://www.w3.org/1999/xlink">
    <!-- Generator: Sketch 48.2 (47327) - http://www.bohemiancoding.com/sketch -->
    <title>Shape</title>
    <desc>Created with Sketch.</desc>
    <defs></defs>
    <g id="Search" stroke="none" stroke-width="1" fill="none" fill-rule="evenodd" transform="translate(-701.000000, -37.000000)">
        <g id="Header" fill="#484848" fill-rule="nonzero">
            <g id="Right-menu" transform="translate(701.000000, 35.000000)">
                <g id="Whatsapp">
                    <g id="whatsapp" transform="translate(0.000000, 2.000000)">
                        <path d="M8.14507143,0 C3.80732143,0 0.2905,3.48932143 0.2905,7.794 C0.2905,9.2665 0.702357143,10.6436429 1.41760714,11.8185357 L0,16 L4.34871429,14.6185 C5.474,15.2358214 6.76817857,15.588 8.14507143,15.588 C12.4833929,15.588 16,12.0981786 16,7.794 C16,3.48932143 12.4833929,0 8.14507143,0 Z M12.0508571,10.7539286 C11.8660714,11.2120357 11.0303571,11.6301071 10.6616071,11.6493571 C10.29325,11.6688929 10.28275,11.9348571 8.27446429,11.0624286 C6.26642857,10.1897857 5.05832143,8.068 4.96307143,7.93135714 C4.86775,7.79521429 4.18521429,6.82253571 4.22203571,5.84367857 C4.25910714,4.86464286 4.79514286,4.40275 4.98646429,4.21064286 C5.17757143,4.01825 5.39667857,3.98378571 5.53046429,3.98160714 C5.68860714,3.97903571 5.79103571,3.97689286 5.90807143,3.98121429 C6.025,3.98564286 6.20064286,3.95675 6.35271429,4.36117857 C6.50471429,4.76557143 6.86853571,5.7595 6.91507143,5.86078571 C6.96157143,5.96217857 6.99035714,6.07957143 6.91871429,6.20975 C6.84685714,6.34021429 6.81007143,6.42171429 6.70582143,6.53414286 C6.601,6.64657143 6.48532143,6.78564286 6.39182143,6.87160714 C6.28753571,6.96678571 6.17860714,7.07060714 6.28825,7.27407143 C6.39782143,7.47739286 6.77585714,8.14392857 7.35178571,8.69321429 C8.09196429,9.39932143 8.73028571,9.63353571 8.92671429,9.74025 C9.12367857,9.84753571 9.24121429,9.83560714 9.36335714,9.70707143 C9.48492857,9.57853571 9.88617857,9.14471429 10.0275,8.95103571 C10.16875,8.75682143 10.3011071,8.79485714 10.4825714,8.86785714 C10.6639286,8.94114286 11.6310357,9.45914286 11.8280357,9.56610714 C12.0248214,9.67285714 12.1563571,9.72785714 12.2033929,9.81253571 C12.2504286,9.89753571 12.2355714,10.2957857 12.0508571,10.7539286 Z" id="Shape"></path>
                    </g>
                </g>
            </g>
        </g>
    </g>
</svg>

<svg xmlns="http://www.w3.org/2000/svg" width="16" height="16"><path d="M8.145 0C3.807 0 .29 3.49.29 7.794c0 1.473.412 2.85 1.127 4.025L0 16l4.35-1.382a7.87 7.87 0 0 0 3.796.97c4.338 0 7.855-3.5 7.855-7.794S12.483 0 8.145 0zm3.906 10.754c-.185.458-1.02.876-1.39.895s-.38.286-2.387-.587-3.216-2.994-3.31-3.13-.778-1.11-.74-2.088.573-1.44.764-1.633a.77.77 0 0 1 .544-.229c.158-.003.26-.005.378 0s.293-.024.445.38l.562 1.5c.046.1.075.22.004.35s-.11.212-.213.324-.22.252-.314.337c-.104.095-.213.2-.104.402s.488.87 1.064 1.42c.74.706 1.38.94 1.575 1.047s.315.095.437-.033a11.97 11.97 0 0 0 .664-.756c.14-.194.274-.156.455-.083s1.148.59 1.345.698.328.162.375.246.032.483-.153.94z" fill="#484848" fill-rule="nonzero"/></svg>
